X:310
T:Reel 310
M:4/4
K:Gmaj
L:1/8
dB|AGFG ABcA|BdcA BGAF|DGGB A2dc|BGAF G2:||:BA|G2ge d2dc|ABcd e2dc|B2GB d2cB|cBAB A2DF|GFGA BcBd|ABcd e2dc|B2ge dcBG|ADEF G2|
